X: 29
T: No_124_The_Rain_on_the_Corn_and_the_Squash.krn
N: Derived from No_124_The_Rain_on_the_Corn_and_the_Squash.krn
%%abc-version 2.0
%%abcx-abcm2ps-target-version 5.9.1 (29 Sep 2008)
%%abc-creator hum2abc beta
%%abcx-conversion-date 2019/03/15 08:37:56
%%humdrum-veritas 2367923501
%%humdrum-veritas-data 1177034550
%%linebreak <none>
%%barnumbers 0
L: 1/8
M: 3/4
K: F clef=bass
[K:clef=bass][M:3/4]C2CC CC ||  
[M:2/4]C3G, ]|:  
CC CC | 
CG, A,F,/ z/ | 
CC/C/ CC | 
DC G,A, | 
(G,F,) F,F, | 
G,G, G,G, | 
A,/F,3/ F,G, ||  
[M:3/4]A,G,F,2!fermata!C,2 ||  
[M:2/4]F,F, F,F, | 
F,F,/F,/D,2 | 
(3F,2 F,2 D,2 | 
(3F,2 F,2 D,2 | 
F,4 | 
F,3/F,/ F,C, ||  
[M:3/4]F,3/F,/F,4 :|]  



